X:1
T:Praise the Lord, 87.87
T:Praise the Lord, 87.87
T:John Christian Bechler (1784–1857)
T:Public Domain Courtesy of the Cyber Hymnal™
C:John Christian Bechler (1784–1857)
Z:Public Domain
Z:Courtesy of the Cyber Hymnal™
%%score ( 1 2 ) ( 3 4 )
L:1/8
Q:1/4=105
M:4/4
K:Bb
V:1 treble 
V:2 treble 
V:3 bass 
V:4 bass 
V:1
 B2 F2 D2 F2 | [B,FB]2 [FAc]2 [FBd]2 [DFB]2 | [EBe]2 [FBd]2 [FAc]2 [FB]2 | [EFA]2 [DFB]2 [FAc]4 | %4
 [FBd]2 [Fc]2 [EBe]2 [FBd]2 | [FAc]2 [FB]2 [FAc]2 [A,CF]2 | [B,FB]2 F2 [FBd]2 [FB]2 | %7
 [DFf]2 [CFA]2 [DFB]4 |] %8
V:2
 B2 F2 D2 F2 | x8 | x8 | x8 | x8 | x8 | x2 F2 x4 | x8 |] %8
V:3
 B,2 F,2 D,2 F,2 | D,2 F,2 B,2 B,,2 | G,2 F,2 E,2 D,2 | C,2 B,,2 F,2 F,,2 | B,2 A,2 G,2 F,2 | %5
 E,2 D,2 F,2 E,2 | D,2 F,2 B,,2 D,2 | F,2 F,,2 (B,,2 [B,,B,]2) |] %8
V:4
 B,2 F,2 D,2 F,2 | x8 | x8 | x8 | x8 | x8 | x2 F,2 x4 | x8 |] %8

